X:1
T:Barbie Girl - Accompany
N:Arrangement by Bozworth of Beards n' Brew
M:4/4
L:1/8
Q:1/4=126
K:E
z8|z8|G4 A4|B,4 E4|
C4 A4|B4 F4|G4 A4|B,4 E4|
C4 A4|B4 F4|G4 A4|B,4 E4|
C4 A4|B4 F4|z8|G4 A4|
B,4 E4|C4 A4|B4 F4|G4 A4|
B,4 E4|C4 A4|B4 F4|